X: 230
T:Mazurka de Castenau
M:3/4
L:1/8
Q:160
C:trad
R:Mazurka
O:France
A:Prigord
Z:S.Piron
K:G
Bc|:d2 de dc|d4 Bc|d2 de dB|c4 AB|c2 cd cA|
c4 de|fe dc BA|1B2G2 Bc:|2G4 e=f|
|:e2 dc de|d2 cB cd|c2 BG AB|A2G2 e=f|
e2 dc de|d2 cB cd|c2 BG AB|1c4 e=f:|2c4 Bc||
W:
W: From "Falaleiro" http://home.t-online.de/home/pheld/homepage.htm
